X:480
T:Highland Laddie. RH.480
T:Tom & Jerry,aka. RH.480
R:Scots Measure
S:Rev.R.Harrison’s MS,c1815,Cumbria
N:One of the ‘Donkey Riding’ family. A non-polka that sounds
N:just like a polka. No idea what a Scot Measure might be. PJH.
O:England
A:Temple Sowerby,Cumbria
Z:vmp.Simon Wilson. Review PJH, 2008.
M:2/4
L:1/8
Q:1/4=90
K:G
G>ABB|cB/A/B2|BA AG/A/|BAAB|\
G>ABB|cB/A/B2|GE ED/E/|GEE:|!
|:B/d/|e>gd>e|cB/A/B2|BA AG/A/|BAAd|\
e>gd>e|cB/A/ B2|GE ED/E/|GEE2:|

